; generated by PrusaSlicer 2.4.2+win64 on 2022-05-12 at 16:13:52 UTC

; 

; external perimeters extrusion width = 0.60mm
; perimeters extrusion width = 0.50mm
; infill extrusion width = 0.50mm
; solid infill extrusion width = 0.50mm
; top infill extrusion width = 0.45mm
; first layer extrusion width = 0.42mm

M73 P0 R294
M73 Q0 S294
M201 X1000 Y1000 Z200 E5000 ; sets maximum accelerations, mm/sec^2
M203 X200 Y200 Z12 E120 ; sets maximum feedrates, mm / sec
M204 P1250 R1250 T1250 ; sets acceleration (P, T) and retract acceleration (R), mm/sec^2
M205 X8.00 Y8.00 Z0.40 E4.50 ; sets the jerk limits, mm/sec
M205 S0 T0 ; sets the minimum extruding and travel feed rate, mm/sec
M107
;TYPE:Custom
M862.3 P "MK3S" ; printer model check
M862.1 P0.4 ; nozzle diameter check
M115 U3.10.1 ; tell printer latest fw version
G90 ; use absolute coordinates
M83 ; extruder relative mode
M104 S215 ; set extruder temp
M140 S60 ; set bed temp
M190 S60 ; wait for bed temp
M109 S215 ; wait for extruder temp
G28 W ; home all without mesh bed level
G80 ; mesh bed leveling
G1 Z0.2 F720
G1 Y-3 F1000 ; go outside print area
G92 E0
G1 X60 E9 F1000 ; intro line
G1 X100 E12.5 F1000 ; intro line
G92 E0
M221 S95

; Don't change E values below. Excessive value can damage the printer.

M907 E538 ; set extruder motor current
G21 ; set units to millimeters
G90 ; use absolute coordinates
M83 ; use relative distances for extrusion
M900 K0.05 ; Filament gcode LA 1.5
M900 K30 ; Filament gcode LA 1.0
M107
;LAYER_CHANGE
;Z:0.2
;HEIGHT:0.2
;BEFORE_LAYER_CHANGE
G92 E0.0
;0.2


G1 E-.8 F2100
G1 Z.4 F720
;AFTER_LAYER_CHANGE
;0.2
G1 X78.765 Y76.043 F10800
G1 Z.2 F720
G1 E.8 F2100
M204 S800
;TYPE:Skirt/Brim
;WIDTH:0.42
G1 F1200
G1 X79.81 Y75.167 E.04278
G1 X80.75 Y74.973 E.03008
G1 X169.25 Y74.973 E2.77486
G1 X170.557 Y75.365 E.04278
G1 X171.433 Y76.41 E.04278
G1 X171.627 Y77.35 E.03008
G1 X171.627 Y132.65 E1.73389
G1 X171.235 Y133.957 E.04278
G1 X170.19 Y134.833 E.04278
G1 X169.25 Y135.027 E.03008
G1 X80.75 Y135.027 E2.77486
G1 X79.443 Y134.635 E.04278
G1 X78.567 Y133.59 E.04278
G1 X78.373 Y132.65 E.03008
G1 X78.373 Y77.35 E1.73389
G1 X78.747 Y76.1 E.0409
M204 S1000
; printing object BatteryDispenserTM_AA.stl id:0 copy 0
;WIPE_START
G1 F8640
G1 X79.81 Y75.167 E-.32671
G1 X80.75 Y74.973 E-.22155
G1 X81.667 Y74.973 E-.21174
;WIPE_END
G1 E-.04 F2100
G1 Z.6 F720
G1 X81.537 Y78.137 F10800
G1 Z.2 F720
G1 E.8 F2100
M204 S800
;TYPE:Perimeter
G1 F1200
G1 X168.463 Y78.137 E2.7255
G1 X168.463 Y131.863 E1.68454
G1 X81.537 Y131.863 E2.7255
G1 X81.537 Y78.197 E1.68265
M204 S1000
G1 X81.16 Y77.76 F10800
M204 S800
;TYPE:External perimeter
G1 F1200
G1 X168.84 Y77.76 E2.74914
G1 X168.84 Y132.24 E1.70818
M73 P0 R293
G1 X81.16 Y132.24 E2.74914
G1 X81.16 Y77.82 E1.7063
M204 S1000
G1 X81.553 Y77.834 F10800
;WIPE_START
G1 F8640
G1 X84.451 Y77.818 E-.76
;WIPE_END
G1 E-.04 F2100
G1 Z.6 F720
G1 X167.587 Y78.25 F10800
G1 Z.2 F720
G1 E.8 F2100
M204 S800
;TYPE:Solid infill
;WIDTH:0.420065
G1 F1200
G1 X168.18 Y78.843 E.02629
G1 X168.18 Y79.376 E.01673
G1 X167.224 Y78.42 E.04242
G1 X166.69 Y78.42 E.01673
G1 X168.18 Y79.91 E.06607
G1 X168.18 Y80.443 E.01673
G1 X166.157 Y78.42 E.08972
G1 X165.624 Y78.42 E.01673
G1 X168.18 Y80.976 E.11338
G1 X168.18 Y81.51 E.01673
G1 X165.09 Y78.42 E.13703
G1 X164.557 Y78.42 E.01673
G1 X168.18 Y82.043 E.16069
G1 X168.18 Y82.576 E.01673
G1 X164.024 Y78.42 E.18434
G1 X163.49 Y78.42 E.01673
G1 X168.18 Y83.11 E.208
G1 X168.18 Y83.643 E.01673
M73 Q0 S293
G1 X162.957 Y78.42 E.23165
G1 X162.423 Y78.42 E.01673
G1 X168.18 Y84.177 E.2553
G1 X168.18 Y84.71 E.01673
G1 X161.89 Y78.42 E.27896
G1 X161.357 Y78.42 E.01673
G1 X168.18 Y85.243 E.30261
G1 X168.18 Y85.777 E.01673
G1 X160.823 Y78.42 E.32627
G1 X160.29 Y78.42 E.01673
G1 X168.18 Y86.31 E.34992
G1 X168.18 Y86.843 E.01673
G1 X159.757 Y78.42 E.37358
G1 X159.223 Y78.42 E.01673
G1 X168.18 Y87.377 E.39723
G1 X168.18 Y87.91 E.01673
G1 X158.69 Y78.42 E.42089
G1 X158.157 Y78.42 E.01673
G1 X168.18 Y88.443 E.44454
G1 X168.18 Y88.977 E.01673
G1 X157.623 Y78.42 E.46819
G1 X157.09 Y78.42 E.01673
G1 X168.18 Y89.51 E.49185
G1 X168.18 Y90.044 E.01673
G1 X156.556 Y78.42 E.5155
G1 X156.023 Y78.42 E.01673
G1 X168.18 Y90.577 E.53916
G1 X168.18 Y91.11 E.01673
G1 X155.49 Y78.42 E.56281
G1 X154.956 Y78.42 E.01673
G1 X168.18 Y91.644 E.58647
G1 X168.18 Y92.177 E.01673
G1 X154.423 Y78.42 E.61012
G1 X153.89 Y78.42 E.01673
G1 X168.18 Y92.71 E.63377
G1 X168.18 Y93.244 E.01673
G1 X153.356 Y78.42 E.65743
G1 X152.823 Y78.42 E.01673
G1 X168.18 Y93.777 E.68108
G1 X168.18 Y94.31 E.01673
G1 X152.29 Y78.42 E.70474
G1 X151.756 Y78.42 E.01673
G1 X168.18 Y94.844 E.72839
G1 X168.18 Y95.377 E.01673
G1 X151.223 Y78.42 E.75205
G1 X150.689 Y78.42 E.01673
G1 X168.18 Y95.911 E.7757
G1 X168.18 Y96.444 E.01673
G1 X150.156 Y78.42 E.79935
G1 X149.623 Y78.42 E.01673
G1 X168.18 Y96.977 E.82301
G1 X168.18 Y97.511 E.01673
G1 X149.089 Y78.42 E.84666
G1 X148.556 Y78.42 E.01673
G1 X168.18 Y98.044 E.87032
G1 X168.18 Y98.577 E.01673
G1 X148.023 Y78.42 E.89397
G1 X147.489 Y78.42 E.01673
G1 X168.18 Y99.111 E.91763
G1 X168.18 Y99.644 E.01673
G1 X146.956 Y78.42 E.94128
G1 X146.423 Y78.42 E.01673
G1 X168.18 Y100.177 E.96493
G1 X168.18 Y100.711 E.01673
G1 X145.889 Y78.42 E.98859
G1 X145.356 Y78.42 E.01673
G1 X168.18 Y101.244 E1.01224
G1 X168.18 Y101.778 E.01673
G1 X144.822 Y78.42 E1.0359
G1 X144.289 Y78.42 E.01673
G1 X168.18 Y102.311 E1.05955
G1 X168.18 Y102.844 E.01673
G1 X143.756 Y78.42 E1.08321
G1 X143.222 Y78.42 E.01673
G1 X168.18 Y103.378 E1.10686
G1 X168.18 Y103.911 E.01673
G1 X142.689 Y78.42 E1.13052
G1 X142.156 Y78.42 E.01673
G1 X168.18 Y104.444 E1.15417
G1 X168.18 Y104.978 E.01673
M73 P0 R292
G1 X141.622 Y78.42 E1.17782
G1 X141.089 Y78.42 E.01673
G1 X168.18 Y105.511 E1.20148
G1 X168.18 Y106.044 E.01673
G1 X140.556 Y78.42 E1.22513
G1 X140.022 Y78.42 E.01673
G1 X168.18 Y106.578 E1.24879
G1 X168.18 Y107.111 E.01673
G1 X139.489 Y78.42 E1.27244
G1 X138.955 Y78.42 E.01673
G1 X168.18 Y107.645 E1.2961
G1 X168.18 Y108.178 E.01673
G1 X138.422 Y78.42 E1.31975
G1 X137.889 Y78.42 E.01673
M73 Q0 S292
G1 X168.18 Y108.711 E1.3434
G1 X168.18 Y109.245 E.01673
G1 X137.355 Y78.42 E1.36706
G1 X136.822 Y78.42 E.01673
G1 X168.18 Y109.778 E1.39071
G1 X168.18 Y110.311 E.01673
G1 X136.289 Y78.42 E1.41437
G1 X135.755 Y78.42 E.01673
G1 X168.18 Y110.845 E1.43802
G1 X168.18 Y111.378 E.01673
G1 X135.222 Y78.42 E1.46168
G1 X134.689 Y78.42 E.01673
G1 X168.18 Y111.911 E1.48533
G1 X168.18 Y112.445 E.01673
G1 X134.155 Y78.42 E1.50898
G1 X133.622 Y78.42 E.01673
G1 X168.18 Y112.978 E1.53264
G1 X168.18 Y113.512 E.01673
G1 X133.088 Y78.42 E1.55629
G1 X132.555 Y78.42 E.01673
G1 X168.18 Y114.045 E1.57995
G1 X168.18 Y114.578 E.01673
G1 X132.022 Y78.42 E1.6036
G1 X131.488 Y78.42 E.01673
G1 X168.18 Y115.112 E1.62726
G1 X168.18 Y115.645 E.01673
G1 X130.955 Y78.42 E1.65091
G1 X130.422 Y78.42 E.01673
G1 X168.18 Y116.178 E1.67456
G1 X168.18 Y116.712 E.01673
G1 X129.888 Y78.42 E1.69822
G1 X129.355 Y78.42 E.01673
G1 X168.18 Y117.245 E1.72187
G1 X168.18 Y117.778 E.01673
G1 X128.822 Y78.42 E1.74553
G1 X128.288 Y78.42 E.01673
G1 X168.18 Y118.312 E1.76918
G1 X168.18 Y118.845 E.01673
M73 P0 R291
G1 X127.755 Y78.42 E1.79284
G1 X127.221 Y78.42 E.01673
G1 X168.18 Y119.379 E1.81649
G1 X168.18 Y119.912 E.01673
G1 X126.688 Y78.42 E1.84015
G1 X126.155 Y78.42 E.01673
G1 X168.18 Y120.445 E1.8638
G1 X168.18 Y120.979 E.01673
M73 Q0 S291
G1 X125.621 Y78.42 E1.88745
G1 X125.088 Y78.42 E.01673
M73 Q1 S291
G1 X168.18 Y121.512 E1.91111
G1 X168.18 Y122.045 E.01673
M73 P1 R291
G1 X124.555 Y78.42 E1.93476
G1 X124.021 Y78.42 E.01673
G1 X168.18 Y122.579 E1.95842
G1 X168.18 Y123.112 E.01673
G1 X123.488 Y78.42 E1.98207
G1 X122.955 Y78.42 E.01673
G1 X168.18 Y123.645 E2.00573
G1 X168.18 Y124.179 E.01673
G1 X122.421 Y78.42 E2.02938
G1 X121.888 Y78.42 E.01673
G1 X168.18 Y124.712 E2.05303
G1 X168.18 Y125.246 E.01673
G1 X121.354 Y78.42 E2.07669
G1 X120.821 Y78.42 E.01673
G1 X168.18 Y125.779 E2.10034
G1 X168.18 Y126.312 E.01673
G1 X120.288 Y78.42 E2.124
G1 X119.754 Y78.42 E.01673
G1 X168.18 Y126.846 E2.14765
G1 X168.18 Y127.379 E.01673
G1 X119.221 Y78.42 E2.17131
G1 X118.688 Y78.42 E.01673
G1 X168.18 Y127.912 E2.19496
G1 X168.18 Y128.446 E.01673
M73 P1 R290
G1 X118.154 Y78.42 E2.21861
G1 X117.621 Y78.42 E.01673
G1 X168.18 Y128.979 E2.24227
G1 X168.18 Y129.512 E.01673
G1 X117.088 Y78.42 E2.26592
G1 X116.554 Y78.42 E.01673
G1 X168.18 Y130.046 E2.28958
G1 X168.18 Y130.579 E.01673
M73 Q1 S290
G1 X116.021 Y78.42 E2.31323
G1 X115.487 Y78.42 E.01673
G1 X168.18 Y131.113 E2.33689
G1 X168.18 Y131.58 E.01466
G1 X168.114 Y131.58 E.00206
G1 X114.954 Y78.42 E2.35762
G1 X114.421 Y78.42 E.01673
G1 X167.581 Y131.58 E2.35762
G1 X167.048 Y131.58 E.01673
G1 X113.887 Y78.42 E2.35762
G1 X113.354 Y78.42 E.01673
G1 X166.514 Y131.58 E2.35762
G1 X165.981 Y131.58 E.01673
G1 X112.821 Y78.42 E2.35762
G1 X112.287 Y78.42 E.01673
G1 X165.448 Y131.58 E2.35762
G1 X164.914 Y131.58 E.01673
G1 X111.754 Y78.42 E2.35762
G1 X111.221 Y78.42 E.01673
G1 X164.381 Y131.58 E2.35762
G1 X163.847 Y131.58 E.01673
G1 X110.687 Y78.42 E2.35762
G1 X110.154 Y78.42 E.01673
G1 X163.314 Y131.58 E2.35762
G1 X162.781 Y131.58 E.01673
M73 P1 R289
G1 X109.62 Y78.42 E2.35762
G1 X109.087 Y78.42 E.01673
G1 X162.247 Y131.58 E2.35762
G1 X161.714 Y131.58 E.01673
G1 X108.554 Y78.42 E2.35762
G1 X108.02 Y78.42 E.01673
G1 X161.181 Y131.58 E2.35762
G1 X160.647 Y131.58 E.01673
M73 Q1 S289
G1 X107.487 Y78.42 E2.35762
G1 X106.954 Y78.42 E.01673
G1 X160.114 Y131.58 E2.35762
G1 X159.581 Y131.58 E.01673
G1 X106.42 Y78.42 E2.35762
G1 X105.887 Y78.42 E.01673
G1 X159.047 Y131.58 E2.35762
G1 X158.514 Y131.58 E.01673
G1 X105.354 Y78.42 E2.35762
G1 X104.82 Y78.42 E.01673
G1 X157.98 Y131.58 E2.35762
G1 X157.447 Y131.58 E.01673
G1 X104.287 Y78.42 E2.35762
G1 X103.753 Y78.42 E.01673
G1 X156.914 Y131.58 E2.35762
G1 X156.38 Y131.58 E.01673
G1 X103.22 Y78.42 E2.35762
G1 X102.687 Y78.42 E.01673
G1 X155.847 Y131.58 E2.35762
G1 X155.314 Y131.58 E.01673
G1 X102.153 Y78.42 E2.35762
G1 X101.62 Y78.42 E.01673
G1 X154.78 Y131.58 E2.35762
G1 X154.247 Y131.58 E.01673
M73 P1 R288
G1 X101.087 Y78.42 E2.35762
G1 X100.553 Y78.42 E.01673
G1 X153.714 Y131.58 E2.35762
G1 X153.18 Y131.58 E.01673
G1 X100.02 Y78.42 E2.35762
G1 X99.487 Y78.42 E.01673
G1 X152.647 Y131.58 E2.35762
G1 X152.113 Y131.58 E.01673
M73 P2 R288
M73 Q2 S288
G1 X98.953 Y78.42 E2.35762
G1 X98.42 Y78.42 E.01673
G1 X151.58 Y131.58 E2.35762
G1 X151.047 Y131.58 E.01673
G1 X97.886 Y78.42 E2.35762
G1 X97.353 Y78.42 E.01673
G1 X150.513 Y131.58 E2.35762
G1 X149.98 Y131.58 E.01673
G1 X96.82 Y78.42 E2.35762
G1 X96.286 Y78.42 E.01673
G1 X149.447 Y131.58 E2.35762
G1 X148.913 Y131.58 E.01673
G1 X95.753 Y78.42 E2.35762
G1 X95.22 Y78.42 E.01673
G1 X148.38 Y131.58 E2.35762
G1 X147.847 Y131.58 E.01673
G1 X94.686 Y78.42 E2.35762
G1 X94.153 Y78.42 E.01673
G1 X147.313 Y131.58 E2.35762
G1 X146.78 Y131.58 E.01673
G1 X93.62 Y78.42 E2.35762
G1 X93.086 Y78.42 E.01673
G1 X146.246 Y131.58 E2.35762
G1 X145.713 Y131.58 E.01673
M73 P2 R287
G1 X92.553 Y78.42 E2.35762
G1 X92.019 Y78.42 E.01673
G1 X145.18 Y131.58 E2.35762
G1 X144.646 Y131.58 E.01673
G1 X91.486 Y78.42 E2.35762
G1 X90.953 Y78.42 E.01673
G1 X144.113 Y131.58 E2.35762
G1 X143.58 Y131.58 E.01673
M73 Q2 S287
G1 X90.419 Y78.42 E2.35762
G1 X89.886 Y78.42 E.01673
G1 X143.046 Y131.58 E2.35762
G1 X142.513 Y131.58 E.01673
G1 X89.353 Y78.42 E2.35762
G1 X88.819 Y78.42 E.01673
G1 X141.98 Y131.58 E2.35762
G1 X141.446 Y131.58 E.01673
G1 X88.286 Y78.42 E2.35762
G1 X87.753 Y78.42 E.01673
G1 X140.913 Y131.58 E2.35762
G1 X140.379 Y131.58 E.01673
G1 X87.219 Y78.42 E2.35762
G1 X86.686 Y78.42 E.01673
G1 X139.846 Y131.58 E2.35762
G1 X139.313 Y131.58 E.01673
G1 X86.152 Y78.42 E2.35762
G1 X85.619 Y78.42 E.01673
G1 X138.779 Y131.58 E2.35762
G1 X138.246 Y131.58 E.01673
G1 X85.086 Y78.42 E2.35762
G1 X84.552 Y78.42 E.01673
G1 X137.713 Y131.58 E2.35762
G1 X137.179 Y131.58 E.01673
M73 P2 R286
G1 X84.019 Y78.42 E2.35762
G1 X83.486 Y78.42 E.01673
G1 X136.646 Y131.58 E2.35762
G1 X136.113 Y131.58 E.01673
G1 X82.952 Y78.42 E2.35762
G1 X82.419 Y78.42 E.01673
G1 X135.579 Y131.58 E2.35762
M73 Q2 S286
G1 X135.046 Y131.58 E.01673
G1 X81.886 Y78.42 E2.35762
G1 X81.82 Y78.42 E.00206
G1 X81.82 Y78.888 E.01467
G1 X134.512 Y131.58 E2.33688
G1 X133.979 Y131.58 E.01673
G1 X81.82 Y79.421 E2.31323
G1 X81.82 Y79.954 E.01673
G1 X133.446 Y131.58 E2.28957
G1 X132.912 Y131.58 E.01673
G1 X81.82 Y80.488 E2.26592
G1 X81.82 Y81.021 E.01673
G1 X132.379 Y131.58 E2.24226
G1 X131.846 Y131.58 E.01673
G1 X81.82 Y81.554 E2.21861
G1 X81.82 Y82.088 E.01673
G1 X131.312 Y131.58 E2.19496
G1 X130.779 Y131.58 E.01673
G1 X81.82 Y82.621 E2.1713
G1 X81.82 Y83.154 E.01673
G1 X130.246 Y131.58 E2.14765
G1 X129.712 Y131.58 E.01673
G1 X81.82 Y83.688 E2.12399
G1 X81.82 Y84.221 E.01673
G1 X129.179 Y131.58 E2.10034
G1 X128.645 Y131.58 E.01673
M73 P2 R285
G1 X81.82 Y84.755 E2.07668
G1 X81.82 Y85.288 E.01673
G1 X128.112 Y131.58 E2.05303
G1 X127.579 Y131.58 E.01673
G1 X81.82 Y85.821 E2.02938
G1 X81.82 Y86.355 E.01673
M73 P3 R285
M73 Q3 S286
G1 X127.045 Y131.58 E2.00572
G1 X126.512 Y131.58 E.01673
M73 Q3 S285
G1 X81.82 Y86.888 E1.98207
G1 X81.82 Y87.421 E.01673
G1 X125.979 Y131.58 E1.95841
G1 X125.445 Y131.58 E.01673
G1 X81.82 Y87.955 E1.93476
G1 X81.82 Y88.488 E.01673
G1 X124.912 Y131.58 E1.9111
G1 X124.379 Y131.58 E.01673
G1 X81.82 Y89.021 E1.88745
G1 X81.82 Y89.555 E.01673
G1 X123.845 Y131.58 E1.86379
G1 X123.312 Y131.58 E.01673
G1 X81.82 Y90.088 E1.84014
G1 X81.82 Y90.622 E.01673
G1 X122.778 Y131.58 E1.81649
G1 X122.245 Y131.58 E.01673
G1 X81.82 Y91.155 E1.79283
G1 X81.82 Y91.688 E.01673
G1 X121.712 Y131.58 E1.76918
G1 X121.178 Y131.58 E.01673
G1 X81.82 Y92.222 E1.74552
G1 X81.82 Y92.755 E.01673
G1 X120.645 Y131.58 E1.72187
G1 X120.112 Y131.58 E.01673
G1 X81.82 Y93.288 E1.69821
G1 X81.82 Y93.822 E.01673
G1 X119.578 Y131.58 E1.67456
G1 X119.045 Y131.58 E.01673
G1 X81.82 Y94.355 E1.65091
G1 X81.82 Y94.888 E.01673
G1 X118.512 Y131.58 E1.62725
G1 X117.978 Y131.58 E.01673
M73 P3 R284
G1 X81.82 Y95.422 E1.6036
G1 X81.82 Y95.955 E.01673
G1 X117.445 Y131.58 E1.57994
G1 X116.911 Y131.58 E.01673
G1 X81.82 Y96.489 E1.55629
G1 X81.82 Y97.022 E.01673
G1 X116.378 Y131.58 E1.53263
G1 X115.845 Y131.58 E.01673
G1 X81.82 Y97.555 E1.50898
G1 X81.82 Y98.089 E.01673
G1 X115.311 Y131.58 E1.48533
G1 X114.778 Y131.58 E.01673
M73 Q3 S284
G1 X81.82 Y98.622 E1.46167
G1 X81.82 Y99.155 E.01673
G1 X114.245 Y131.58 E1.43802
G1 X113.711 Y131.58 E.01673
G1 X81.82 Y99.689 E1.41436
G1 X81.82 Y100.222 E.01673
G1 X113.178 Y131.58 E1.39071
G1 X112.645 Y131.58 E.01673
G1 X81.82 Y100.755 E1.36705
G1 X81.82 Y101.289 E.01673
G1 X112.111 Y131.58 E1.3434
G1 X111.578 Y131.58 E.01673
G1 X81.82 Y101.822 E1.31975
G1 X81.82 Y102.356 E.01673
G1 X111.044 Y131.58 E1.29609
G1 X110.511 Y131.58 E.01673
G1 X81.82 Y102.889 E1.27244
G1 X81.82 Y103.422 E.01673
G1 X109.978 Y131.58 E1.24878
G1 X109.444 Y131.58 E.01673
G1 X81.82 Y103.956 E1.22513
G1 X81.82 Y104.489 E.01673
G1 X108.911 Y131.58 E1.20147
G1 X108.378 Y131.58 E.01673
G1 X81.82 Y105.022 E1.17782
G1 X81.82 Y105.556 E.01673
G1 X107.844 Y131.58 E1.15416
G1 X107.311 Y131.58 E.01673
G1 X81.82 Y106.089 E1.13051
G1 X81.82 Y106.622 E.01673
G1 X106.778 Y131.58 E1.10686
G1 X106.244 Y131.58 E.01673
G1 X81.82 Y107.156 E1.0832
G1 X81.82 Y107.689 E.01673
G1 X105.711 Y131.58 E1.05955
G1 X105.177 Y131.58 E.01673
G1 X81.82 Y108.223 E1.03589
G1 X81.82 Y108.756 E.01673
G1 X104.644 Y131.58 E1.01224
G1 X104.111 Y131.58 E.01673
G1 X81.82 Y109.289 E.98858
G1 X81.82 Y109.823 E.01673
G1 X103.577 Y131.58 E.96493
G1 X103.044 Y131.58 E.01673
G1 X81.82 Y110.356 E.94128
G1 X81.82 Y110.889 E.01673
M73 P3 R283
G1 X102.511 Y131.58 E.91762
G1 X101.977 Y131.58 E.01673
G1 X81.82 Y111.423 E.89397
G1 X81.82 Y111.956 E.01673
G1 X101.444 Y131.58 E.87031
G1 X100.911 Y131.58 E.01673
G1 X81.82 Y112.489 E.84666
G1 X81.82 Y113.023 E.01673
G1 X100.377 Y131.58 E.823
G1 X99.844 Y131.58 E.01673
G1 X81.82 Y113.556 E.79935
G1 X81.82 Y114.09 E.01673
G1 X99.31 Y131.58 E.7757
G1 X98.777 Y131.58 E.01673
G1 X81.82 Y114.623 E.75204
G1 X81.82 Y115.156 E.01673
G1 X98.244 Y131.58 E.72839
